X:1
T:Title
%%score { ( 1 2 ) | ( 3 4 ) }
L:1/8
Q:1/4=90
M:6/8
K:Ab
V:1 treble nm="Grand Piano"
V:2 treble 
V:3 bass 
V:4 bass 
V:1
 [Ec]2 [CB] BA[DF] | [DF]3 [CE]3 | [DF]2 [DF] AB[Ec] | [EB]6 | [Ec]2 [=EB] BAF | [DF]3 [CE]3 | %6
w: Hubert~P.~Main * * * *||||||
 A2 A B2 c | [CA]6 | c2 c cde | z3 B3 | =A2 A ABc | [DB]6 | [Fd]2 [Fd] dcB | B3 A3 | %14
w: ||||||||
 .[=Dc]2 [B,DA] [B,_DG]2 [DB] | [CA]6 |] %16
w: ||
V:2
 z3 .D3 | x6 | z3 .E3 | x6 | z3 .F3 | x6 | x6 | x6 | x6 | e3 z2 _G, | x6 | x6 | x6 | x6 | x6 | %15
 x6 |] %16
V:3
 [A,,E,]2 [A,,=E,] [A,,F,]2 [A,,A,] | [A,,A,]3 [A,,A,]3 | [D,A,]2 [D,A,] [C,A,][B,,G,][A,,A,] | %3
 [E,G,]6 | [A,,A,]2 [C,G,] [D,F,]2 [D,A,D] | [A,,A,]3 [A,,A,]3 | %6
 [E,A,C]2 [E,F,C] [E,G,D]2 [E,G,D] | [A,,A,]6 | z3 .[A,E]3 | [G,B,E]3 .[G,B,E]3 | z3 .C3 | %11
 [B,,B,]6 | [B,,B,]2 [B,,A,] [E,G,E]2 [E,G,D] | [=E,G,D]3 [F,A,C]3 | %14
 z[K:treble] B[K:bass]B,, E,2 [E,G,] | [A,,E,A,]6 |] %16
V:4
 x6 | x6 | x6 | x6 | x6 | x6 | x6 | x6 | [A,E]2 [A,E] z B,[A,CE] | x6 | %10
 [F,CE]2 [F,CE] [F,E]-[F,B,E][F,A,E] | x6 | x6 | x6 | .[B,,F,]3[K:treble][K:bass] z3 | x6 |] %16

